database-sync-outline.svg

<svg fill="currentColor" viewBox="0 0 24 24"><path d="M12 16c.41 0 .81-.03 1.21-.06.19-.76.51-1.48.95-2.11-.69.11-1.42.17-2.16.17-2.42 0-4.7-.6-6-1.55V9.64c1.47.83 3.61 1.36 6 1.36s4.53-.53 6-1.36v1.55c.5-.12 1-.19 1.55-.19.15 0 .3 0 .45.03V7c0-2.21-3.58-4-8-4S4 4.79 4 7v10c0 2.21 3.59 4 8 4 .66 0 1.31-.04 1.92-.12-.35-.59-.61-1.24-.76-1.94-.37.06-.75.06-1.16.06-3.87 0-6-1.5-6-2v-2.23c1.61.78 3.72 1.23 6 1.23m0-11c3.87 0 6 1.5 6 2s-2.13 2-6 2-6-1.5-6-2 2.13-2 6-2m11 12.5c0 .82-.25 1.58-.67 2.21l-1.09-1.09c.17-.34.26-.72.26-1.12A2.5 2.5 0 0 0 19 15v1.5l-2.25-2.25L19 12v1.5c2.21 0 4 1.79 4 4m-4 1 2.25 2.25L19 23v-1.5c-2.21 0-4-1.79-4-4 0-.82.25-1.58.67-2.21l1.09 1.09c-.17.34-.26.72-.26 1.12A2.5 2.5 0 0 0 19 20z"/></svg>

<svg  viewBox="0 0 24 24" fill="currentColor"><path  d="M12 16C12.41 16 12.81 15.97 13.21 15.94C13.4 15.18 13.72 14.46 14.16 13.83C13.47 13.94 12.74 14 12 14C9.58 14 7.3 13.4 6 12.45V9.64C7.47 10.47 9.61 11 12 11S16.53 10.47 18 9.64V11.19C18.5 11.07 19 11 19.55 11C19.7 11 19.85 11 20 11.03V7C20 4.79 16.42 3 12 3S4 4.79 4 7V17C4 19.21 7.59 21 12 21C12.66 21 13.31 20.96 13.92 20.88C13.57 20.29 13.31 19.64 13.16 18.94C12.79 19 12.41 19 12 19C8.13 19 6 17.5 6 17V14.77C7.61 15.55 9.72 16 12 16M12 5C15.87 5 18 6.5 18 7S15.87 9 12 9 6 7.5 6 7 8.13 5 12 5M23 17.5C23 18.32 22.75 19.08 22.33 19.71L21.24 18.62C21.41 18.28 21.5 17.9 21.5 17.5C21.5 16.12 20.38 15 19 15V16.5L16.75 14.25L19 12V13.5C21.21 13.5 23 15.29 23 17.5M19 18.5L21.25 20.75L19 23V21.5C16.79 21.5 15 19.71 15 17.5C15 16.68 15.25 15.92 15.67 15.29L16.76 16.38C16.59 16.72 16.5 17.1 16.5 17.5C16.5 18.88 17.62 20 19 20V18.5Z"/></svg>
